X: 40
T:Bonny Lass of Fyfie
% Nottingham Music Database
S:Joy, via EF
M:4/4
L:1/4
K:G
D|"G"G3/2F/2 "C"GA|"G"G2 "D"D2|"G"G3/2F/2 "C"GA|"G"G3D|"G"G2 Bc|"G"d2 cB|\
"Am"A2 D2|"D7"D2 dc|
"G"B3/2A/2 Bc|"G7"d2 DD|"C"G3/2A/2 GE|"C"C2 EE|"G/d"D2 G2|"D7"AG FE|\
"G"D2 "C"G2|"G"G3:|


